packages/icons/svgs/solid/Source=bars-sort-down.svg

<svg width="12" height="12" viewBox="0 0 12 12" fill="none" xmlns="http://www.w3.org/2000/svg">
<g clip-path="url(#clip0_810_687)">
<path fill-rule="evenodd" clip-rule="evenodd" d="M0.75 2.25H11.25C11.664 2.25 12 1.914 12 1.5C12 1.086 11.664 0.75 11.25 0.75H0.75C0.336 0.75 0 1.086 0 1.5C0 1.914 0.336 2.25 0.75 2.25ZM9.75 5.25H2.25C1.836 5.25 1.5 4.914 1.5 4.5C1.5 4.086 1.836 3.75 2.25 3.75H9.75C10.164 3.75 10.5 4.086 10.5 4.5C10.5 4.914 10.164 5.25 9.75 5.25ZM3.75 8.25H8.25C8.664 8.25 9 7.914 9 7.5C9 7.086 8.664 6.75 8.25 6.75H3.75C3.336 6.75 3 7.086 3 7.5C3 7.914 3.336 8.25 3.75 8.25ZM5.25 11.25H6.75C7.164 11.25 7.5 10.914 7.5 10.5C7.5 10.086 7.164 9.75 6.75 9.75H5.25C4.836 9.75 4.5 10.086 4.5 10.5C4.5 10.914 4.836 11.25 5.25 11.25Z" fill="black"/>
</g>
<defs>
<clipPath id="clip0_810_687">
<rect width="12" height="12" fill="white"/>
</clipPath>
</defs>
</svg>

<svg xmlns="http://www.w3.org/2000/svg" width="12" height="12" viewBox="0 0 12 12"><g clip-path="url(#a)"><path fill-rule="evenodd" d="M.75 2.25h10.5a.75.75 0 0 0 0-1.5H.75a.75.75 0 0 0 0 1.5Zm9 3h-7.5a.75.75 0 0 1 0-1.5h7.5a.75.75 0 0 1 0 1.5Zm-6 3h4.5a.75.75 0 0 0 0-1.5h-4.5a.75.75 0 0 0 0 1.5Zm1.5 3h1.5a.75.75 0 0 0 0-1.5h-1.5a.75.75 0 0 0 0 1.5Z" clip-rule="evenodd"/></g><defs><clipPath id="a"><path fill="#fff" d="M0 0h12v12H0z"/></clipPath></defs></svg>
